X:1
T:Bonar (Brunk), CMD
T:Bonar (Brunk), CMD
T:John David Brunk, 1904
T:Public Domain Courtesy of the Cyber Hymnal™
C:John David Brunk, 1904
Z:Public Domain
Z:Courtesy of the Cyber Hymnal™
%%score 1 ( 2 3 )
L:1/8
Q:1/4=110
M:3/4
K:D
V:1 treble 
V:2 bass 
V:3 bass 
V:1
 [FA]2 [FA]>[DG] [DF]2 | [GB]2 [FA]>[EG] [DF]2 | [Ad]2 [Gc]>[GB] [GA]2 | [EG]2 [DF]4 | %4
 [FA]2 [DA]>[CG] [DF]2 | [DB]2 [DA]>[CG] [DF]2 | [Ad]2 [Gc]>[GB] [GA]2 | [Gc]2 [Fd]4 | %8
 [Ge]2 [Gc]>[DGB] [GA]2 | [EG]2 [DF]>[FB] [FA]2 | [Ge]2 [Gc]>[GB] [GA]2 | [EG]2 [DF]4 | %12
 [FA]2 [FA]>[EG] [DF]2 | [GB]2 [FA]>[EG] [DF]2 | [Fd]2 [Gc]>[GB] [GA]2 | [Gc]2 [Fd]4 |] %16
V:2
 [D,D]2 [D,D]>[D,A,] [D,A,]2 | [D,D]2 [D,D]>[D,D] D,2 | [F,D]2 [A,E]>[A,D] [A,C]2 | [A,,C]2 D,4 | %4
 [D,D]2 F,>[E,A,] [D,A,]2 | G,2 [F,A,]>[E,A,] A,2 | [F,A,]2 A,>[A,B,] [A,C]2 | [A,E]2 [D,D]4 | %8
 [A,C]2 [A,E]>A, [A,C]2 | [A,,C]2 D,>[D,D] [D,D]2 | [A,C]2 [A,E]>[A,D] [A,C]2 | [A,,A,]2 [D,A,]4 | %12
 [D,D]2 [D,D]>[D,A,] [D,A,]2 | [D,D]2 [D,D]>[D,A,] [D,A,]2 | [D,A,]2 [A,,A,]>[A,,A,] [A,,A,]2 | %15
 [A,,A,]2 [D,A,]4 |] %16
V:3
 x6 | x4 D,2 | x6 | x2 D,4 | x2 F,3/2 x5/2 | G,2 A,2 x2 | x2 A,3/2 x5/2 | x6 | x6 | x2 D,3/2 x5/2 | %10
 x6 | x6 | x6 | x6 | x6 | x6 |] %16

